X: 202
T: Vaynikehu
C: Gil Aldema 1955
D: Potpourri Israel Folk Dances (Tikva 117)
O: Israel
M: 4/4
L: 1/8
Q: 1/4=160
K: F
M: 5/4
  A2 FF2G(3FED F2|A2 FF2G(3FED D2|\
  A2 FF2G(3FED F2|[M:4/4] G4 A4  |
|:DD CD FF GF    |z A2 ccAc2     |\
  B2 B2 AF2A     |G4 G4          :| 


